X: 3847
T: Black Mountain Schottische
R: hornpipe
M: 4/4
K: Gmajor
|:G2G2D2D2|GFGd e2 d2|ceAc BdGB|A2A2 dcBA|
G2G2 D2D2|GFGd e2 d2|ceAc BdGB|A2A2 G4:|
|:BABc d2d2|GFGA B2B2|A2 EF A2 EF|AFEF E2D2|
BABc d2d2|GFGA B2B2|A2 EF A2 EF|A2B2 G4:|
|:B2c2d2 Bd|gdBd A4|ABcd f2>e2|dcBA B4|
B2c2d2 Bd|gdBd A4|ABcd f2>e2|dcBA G4:|

